Apricity Icons/apps/scalable/devassistant.svg

<!-- Created with Inkscape (http://www.inkscape.org/) -->
<svg xmlns="http://www.w3.org/2000/svg" viewBox="0 0 48 48">
 <defs>
  <linearGradient x1="1" x2="47" id="linearGradient3764" gradientUnits="userSpaceOnUse" gradientTransform="matrix(0,-1,1,0,-1.5e-6,47.999998)">
   <stop style="stop-color:#333;stop-opacity:1"/>
   <stop offset="1" style="stop-color:#3d3d3d;stop-opacity:1"/>
  </linearGradient>
 </defs>
 <g>
  <path d="m 36.31,5 c 5.859,4.062 9.688,10.831 9.688,18.5 0,12.426 -10.07,22.5 -22.5,22.5 -7.669,0 -14.438,-3.828 -18.5,-9.688 1.037,1.822 2.306,3.499 3.781,4.969 4.085,3.712 9.514,5.969 15.469,5.969 12.703,0 23,-10.298 23,-23 0,-5.954 -2.256,-11.384 -5.969,-15.469 C 39.81,7.306 38.132,6.037 36.31,5 z m 4.969,3.781 c 3.854,4.113 6.219,9.637 6.219,15.719 0,12.703 -10.297,23 -23,23 -6.081,0 -11.606,-2.364 -15.719,-6.219 4.16,4.144 9.883,6.719 16.219,6.719 12.703,0 23,-10.298 23,-23 0,-6.335 -2.575,-12.06 -6.719,-16.219 z" style="opacity:0.05"/>
  <path d="m 41.28 8.781 c 3.712 4.085 5.969 9.514 5.969 15.469 0 12.703 -10.297 23 -23 23 -5.954 0 -11.384 -2.256 -15.469 -5.969 4.113 3.854 9.637 6.219 15.719 6.219 12.703 0 23 -10.298 23 -23 0 -6.081 -2.364 -11.606 -6.219 -15.719 z" style="opacity:0.1"/>
  <path d="M 31.25,2.375 C 39.865,5.529 46,13.792 46,23.505 c 0,12.426 -10.07,22.5 -22.5,22.5 -9.708,0 -17.971,-6.135 -21.12,-14.75 a 23,23 0 0 0 44.875,-7 23,23 0 0 0 -16,-21.875 z" style="opacity:0.2"/>
 </g>
 <g>
  <path d="M 24,1 C 36.703,1 47,11.297 47,24 47,36.703 36.703,47 24,47 11.297,47 1,36.703 1,24 1,11.297 11.297,1 24,1 z" style="fill:url(#linearGradient3764);fill-opacity:1"/>
 </g>
 <g transform="matrix(0.06,0,0,0.06,13,13)" style="fill:#000;fill-opacity:0.098">
  <path d="m 13 13 0 24 24 0 0 -24 z m 7 3 10 0 -5 5 z m -4 4 5 5 -5 5 z m 18 0 0 10 -5 -5 z m -9 9 5 5 -10 0 z" transform="matrix(16.666667,0,0,16.666667,-216.66667,-216.66667)"/>
 </g>
 <g>
  <path d="m 40.03,7.531 c 3.712,4.084 5.969,9.514 5.969,15.469 0,12.703 -10.297,23 -23,23 C 17.045,46 11.615,43.744 7.53,40.031 11.708,44.322 17.54,47 23.999,47 c 12.703,0 23,-10.298 23,-23 0,-6.462 -2.677,-12.291 -6.969,-16.469 z" style="opacity:0.1"/>
 </g>
 <g transform="matrix(0.06,0,0,0.06,12,12)">
  <path d="m 0 0 400 0 0 400 z m 350 116.67 -83.33 83.33 83.33 83.33 z m -66.67 -66.67 -166.67 0 83.33 83.33 z" style="fill:#e0e1e2"/>
  <path d="m 0 0 200 200 -200 200 z m 133.33 200 -83.33 -83.33 0 166.67 z" style="fill:#3273cd"/>
  <path d="m 200 200 200 200 -400 0 z m 83.33 150 -83.33 -83.33 -83.33 83.33 z" style="fill:#0a4ba9"/>
 </g>
</svg>

<?xml version="1.0" encoding="UTF-8" standalone="no"?>
<!-- Created with Inkscape (http://www.inkscape.org/) -->

<svg
   xmlns:dc="http://purl.org/dc/elements/1.1/"
   xmlns:cc="http://creativecommons.org/ns#"
   xmlns:rdf="http://www.w3.org/1999/02/22-rdf-syntax-ns#"
   xmlns:svg="http://www.w3.org/2000/svg"
   xmlns="http://www.w3.org/2000/svg"
   xmlns:sodipodi="http://sodipodi.sourceforge.net/DTD/sodipodi-0.dtd"
   xmlns:inkscape="http://www.inkscape.org/namespaces/inkscape"
   version="1.1"
   width="100%"
   height="100%"
   viewBox="0 0 48 48"
   id="svg2"
   inkscape:version="0.48.5 r10040"
   sodipodi:docname="devassistant5.svg">
  <sodipodi:namedview
     pagecolor="#ffffff"
     bordercolor="#666666"
     borderopacity="1"
     objecttolerance="10"
     gridtolerance="10"
     guidetolerance="10"
     inkscape:pageopacity="0"
     inkscape:pageshadow="2"
     inkscape:window-width="1366"
     inkscape:window-height="713"
     id="namedview29"
     showgrid="true"
     inkscape:zoom="19.666667"
     inkscape:cx="24"
     inkscape:cy="26.033898"
     inkscape:window-x="0"
     inkscape:window-y="28"
     inkscape:window-maximized="1"
     inkscape:current-layer="svg2">
    <inkscape:grid
       type="xygrid"
       id="grid3006" />
  </sodipodi:namedview>
  <metadata
     id="metadata77">
    <rdf:RDF>
      <cc:Work
         rdf:about="">
        <dc:format>image/svg+xml</dc:format>
        <dc:type
           rdf:resource="http://purl.org/dc/dcmitype/StillImage" />
        <dc:title></dc:title>
      </cc:Work>
    </rdf:RDF>
  </metadata>
  <defs
     id="defs4">
    <linearGradient
       x1="1"
       x2="47"
       id="linearGradient3764"
       gradientUnits="userSpaceOnUse"
       gradientTransform="matrix(0,-1,1,0,-1.5e-6,47.999998)">
      <stop
         id="stop7"
         style="stop-color:#333333;stop-opacity:1"
         offset="0" />
      <stop
         id="stop9"
         style="stop-color:#3d3d3d;stop-opacity:1"
         offset="1" />
    </linearGradient>
    <clipPath
       id="clipPath-729330563">
      <g
         transform="translate(0,-1004.3622)"
         id="g12">
        <path
           d="m -24,13 c 0,1.105 -0.672,2 -1.5,2 -0.828,0 -1.5,-0.895 -1.5,-2 0,-1.105 0.672,-2 1.5,-2 0.828,0 1.5,0.895 1.5,2 z"
           transform="matrix(15.333333,0,0,11.5,414.99999,878.8622)"
           id="path14"
           style="fill:#1890d0" />
      </g>
    </clipPath>
    <clipPath
       id="clipPath-739977696">
      <g
         transform="translate(0,-1004.3622)"
         id="g17">
        <path
           d="m -24,13 c 0,1.105 -0.672,2 -1.5,2 -0.828,0 -1.5,-0.895 -1.5,-2 0,-1.105 0.672,-2 1.5,-2 0.828,0 1.5,0.895 1.5,2 z"
           transform="matrix(15.333333,0,0,11.5,414.99999,878.8622)"
           id="path19"
           style="fill:#1890d0" />
      </g>
    </clipPath>
  </defs>
  <g
     id="g21">
    <path
       d="m 36.31,5 c 5.859,4.062 9.688,10.831 9.688,18.5 0,12.426 -10.07,22.5 -22.5,22.5 -7.669,0 -14.438,-3.828 -18.5,-9.688 1.037,1.822 2.306,3.499 3.781,4.969 4.085,3.712 9.514,5.969 15.469,5.969 12.703,0 23,-10.298 23,-23 0,-5.954 -2.256,-11.384 -5.969,-15.469 C 39.81,7.306 38.132,6.037 36.31,5 z m 4.969,3.781 c 3.854,4.113 6.219,9.637 6.219,15.719 0,12.703 -10.297,23 -23,23 -6.081,0 -11.606,-2.364 -15.719,-6.219 4.16,4.144 9.883,6.719 16.219,6.719 12.703,0 23,-10.298 23,-23 0,-6.335 -2.575,-12.06 -6.719,-16.219 z"
       id="path23"
       style="opacity:0.05" />
    <path
       d="m 41.28,8.781 c 3.712,4.085 5.969,9.514 5.969,15.469 0,12.703 -10.297,23 -23,23 -5.954,0 -11.384,-2.256 -15.469,-5.969 4.113,3.854 9.637,6.219 15.719,6.219 12.703,0 23,-10.298 23,-23 0,-6.081 -2.364,-11.606 -6.219,-15.719 z"
       id="path25"
       style="opacity:0.1" />
    <path
       d="M 31.25,2.375 C 39.865,5.529 46,13.792 46,23.505 c 0,12.426 -10.07,22.5 -22.5,22.5 -9.708,0 -17.971,-6.135 -21.12,-14.75 a 23,23 0 0 0 44.875,-7 23,23 0 0 0 -16,-21.875 z"
       id="path27"
       style="opacity:0.2" />
  </g>
  <g
     id="g29">
    <path
       d="M 24,1 C 36.703,1 47,11.297 47,24 47,36.703 36.703,47 24,47 11.297,47 1,36.703 1,24 1,11.297 11.297,1 24,1 z"
       id="path31"
       style="fill:url(#linearGradient3764);fill-opacity:1" />
  </g>
  <g
     transform="matrix(0.06,0,0,0.06,13,13)"
     id="g3069"
     style="fill:#000000;fill-opacity:0.09803922">
    <path
       d="m 13,13 0,24 24,0 0,-24 z m 7,3 10,0 -5,5 z m -4,4 5,5 -5,5 z m 18,0 0,10 -5,-5 z m -9,9 5,5 -10,0 z"
       transform="matrix(16.666667,0,0,16.666667,-216.66667,-216.66667)"
       id="path3071"
       style="fill:#000000;fill-opacity:0.09803922"
       inkscape:connector-curvature="0"
       sodipodi:nodetypes="ccccccccccccccccccccc" />
  </g>
  <g
     id="g33" />
  <g
     id="g71">
    <path
       d="m 40.03,7.531 c 3.712,4.084 5.969,9.514 5.969,15.469 0,12.703 -10.297,23 -23,23 C 17.045,46 11.615,43.744 7.53,40.031 11.708,44.322 17.54,47 23.999,47 c 12.703,0 23,-10.298 23,-23 0,-6.462 -2.677,-12.291 -6.969,-16.469 z"
       id="path73"
       style="opacity:0.1" />
  </g>
  <g
     transform="matrix(0.06,0,0,0.06,12,12)"
     id="g4511">
    <path
       d="m 0,0 400,0 0,400 z M 350,116.66667 266.66667,200 350,283.33333 z M 283.33333,50 116.66667,50 200,133.33333 z"
       id="path4486"
       style="fill:#e0e1e2"
       inkscape:connector-curvature="0"
       sodipodi:nodetypes="cccccccccccc" />
    <path
       d="M 0,0 200,200 0,400 z M 133.33333,200 50,116.66667 50,283.33333 z"
       id="path4482"
       style="fill:#3273cd"
       inkscape:connector-curvature="0"
       sodipodi:nodetypes="cccccccc" />
    <path
       d="M 200,200 400,400 0,400 z M 283.33333,350 200,266.66667 116.66667,350 z"
       id="path4480"
       style="fill:#0a4ba9"
       inkscape:connector-curvature="0"
       sodipodi:nodetypes="cccccccc" />
  </g>
</svg>
